X:108
T:Battering Ram, The
R:jig
D:Chieftains 1
D:Kevin Crawford: D flute album
Z:id:hn-jig-108
M:6/8
K:G
dBG BAG|dBG G2B|dBG AGE|GED D2B|dBG BAG|B/c/dB BAG|AGA BAB|[1 GED D2B:|
[2 GED D2B|:deg aga|bge edB|deg aga|bge e2b|bag age|ged ege|dBG AGE|
[1 GED D2B:|[2 GED Ded|:B2G A2G|B2d d2B|BAG AGE|GED Ded|B2G A2G|B/c/dB BAG|
AGA BAB|GED D2B:|

